outputs/icons/editor/color_fill_sharp.svg

<svg xmlns="http://www.w3.org/2000/svg" width="1200" height="1200" fill="none"><g fill="#000" clip-path="url(#a)"><path fill-rule="evenodd" d="m500 881 381-381L381 0l-70.5 70.5 119 119L119 500zm0-620.5L739.5 500h-479z"/><path d="M950 850c55 0 100-45 100-100 0-66.5-100-175-100-175S850 683.5 850 750c0 55 45 100 100 100M100 1000h1000v200H100z"/></g><defs><clipPath id="a"><path fill="#fff" d="M0 0h1200v1200H0z"/></clipPath></defs></svg>

<svg width="1200" height="1200" viewBox="0 0 1200 1200" fill="none" xmlns="http://www.w3.org/2000/svg"><g clip-path="url(#clip0_125_1490)"><path fill-rule="evenodd" d="M500 881L881 500L381 0L310.5 70.5L429.5 189.5L119 500L500 881ZM500 260.5L739.5 500H260.5L500 260.5ZM950 850C1005 850 1050 805 1050 750C1050 683.5 950 575 950 575C950 575 850 683.5 850 750C850 805 895 850 950 850ZM100 1000H1100V1200H100V1000Z" fill="#1D1E23"/></g><defs><clipPath id="clip0_125_1490"><path width="24" fill="white" d="M0 0H1200V1200H0V0z"/></clipPath></defs></svg>
